symbols/web/3mp/materialsymbolsoutlined/3mp_wght600fill1_40px.svg

<svg xmlns="http://www.w3.org/2000/svg" height="40" width="40"><path d="M15.917 19.125h5.541q.625 0 1.146-.521.521-.521.521-1.146v-6.666q0-.625-.521-1.146-.521-.521-1.146-.521h-5.541v2.208h5v2.084h-3.125v1.458h3.125v2.042h-5Zm-6.125 11.75h2.25v-7.542h2v5.084h2.25v-5.084H18.5v7.542h2.208v-8.083q0-.625-.52-1.146-.521-.521-1.146-.521h-7.584q-.625 0-1.146.521-.52.521-.52 1.146Zm13.166 0h2.209v-2.458H28.5q.625 0 1.146-.521.521-.521.521-1.146v-3.958q0-.625-.521-1.146-.521-.521-1.146-.521h-5.542Zm2.209-4.708v-2.834h2.791v2.834ZM8 35.667q-1.5 0-2.583-1.084Q4.333 33.5 4.333 32V8q0-1.5 1.084-2.583Q6.5 4.333 8 4.333h24q1.5 0 2.583 1.084Q35.667 6.5 35.667 8v24q0 1.5-1.084 2.583Q33.5 35.667 32 35.667Z"/></svg>

<svg xmlns="http://www.w3.org/2000/svg" height="40" width="40"><path d="M15.917 19.125H21.458Q22.083 19.125 22.604 18.604Q23.125 18.083 23.125 17.458V10.792Q23.125 10.167 22.604 9.646Q22.083 9.125 21.458 9.125H15.917V11.333H20.917V13.417H17.792V14.875H20.917V16.917H15.917ZM8 35.667Q6.5 35.667 5.417 34.583Q4.333 33.5 4.333 32V8Q4.333 6.5 5.417 5.417Q6.5 4.333 8 4.333H32Q33.5 4.333 34.583 5.417Q35.667 6.5 35.667 8V32Q35.667 33.5 34.583 34.583Q33.5 35.667 32 35.667ZM11.458 21.125Q10.833 21.125 10.312 21.646Q9.792 22.167 9.792 22.792V30.875H12.042V23.333H14.042V28.417H16.292V23.333H18.5V30.875H20.708V22.792Q20.708 22.167 20.188 21.646Q19.667 21.125 19.042 21.125ZM22.958 21.125V30.875H25.167V28.417H28.5Q29.125 28.417 29.646 27.896Q30.167 27.375 30.167 26.75V22.792Q30.167 22.167 29.646 21.646Q29.125 21.125 28.5 21.125ZM25.167 23.333H27.958V26.167H25.167Z"/></svg>
